!!!!SEGMENT: pl-sa--162-a-iv-12--005_luna-georgius--vesperae-laudate-dominum.krn
!!!cenid: 17xx:511
!!!COM: Luna, Georgius
!!!COM-rismid: pe41010079
!!!CDT:
!!!CNT:
!!!OTL: Vesperae – Laudate Dominum
!!!PDT:
!!!AGN: Sacred; Vespers
!!!SMS-siglum: PL-SA
!!!SMS-shelfmark: 162/A IV 12
!!!SMS-shelfwork: 001-005 M
!!!SMS-variant:
!!!SMS-altvar:
!!!NIFC-rismid: 1001070719
!!!URL-scan: http://bc.bdsandomierz.pl/dlibra/publication/1548/edition/1516/content
!!!ONB-nifc: UWAGA: części Vesperae: Dixit Dominus, Confitebor, Beatus vir, Laudate pueri, Laudate Dominum, Magnificat
**kern	**kern	**kern	**kern	**text	**kern	**text	**kern	**text	**kern	**kern	**kern	**kern
*part10	*part9	*part8	*part7	*part7	*part6	*part6	*part5	*part5	*part4	*part3	*part2	*part1
*staff10	*staff9	*staff8	*staff7	*staff7	*staff6	*staff6	*staff5	*staff5	*staff4	*staff3	*staff2	*staff1
*I"Violincello	*I"Violino Secundo	*I"Violino Primo	*I"Basſo	*	*I"Tenore	*	*I"Canto	*	*I"Tromba Secunda ex D	*I"Tromba Prima ex D	*I"Flauto Traverso 2do	*I"Flauto Traverso Primo
*I'vlc	*I'vl II	*I'vl I	*I'B	*	*I'T	*	*I'C	*	*I'tr II	*I'tr I	*I'fl II	*I'fl I
*clefF4	*clefG2	*clefG2	*clefF4	*	*clefC4	*	*clefC1	*	*clefG2	*clefG2	*clefG2	*clefG2
*	*	*	*	*	*	*	*	*	*ITrd-1c-2	*ITrd-1c-2	*	*
*k[f#c#]	*k[f#c#]	*k[f#c#]	*k[f#c#]	*	*k[f#c#]	*	*k[f#c#]	*	*k[f#c#]	*k[f#c#]	*k[f#c#]	*k[f#c#]
*M3/4	*M3/4	*M3/4	*M3/4	*	*M3/4	*	*M3/4	*	*M3/4	*M3/4	*M3/4	*M3/4
=1	=1	=1	=1	=1	=1	=1	=1	=1	=1	=1	=1	=1
!LO:TX:a:B:t=Allo	!LO:TX:a:B:t=Allo n(on) molto	!LO:TX:a:B:t=Allo non molto	!	!	!	!	!	!	!LO:TX:a:B:t=Allo	!	!LO:TX:a:B:t=Tacet usq Magnificat	!LO:TX:a:B:t=Tacet usq(ue) in Magnificat
!	!	!	!	!	!	!	!	!	!LO:TX:a:t=Ex D&colon; Cornu Laudate	!LO:TX:a:t=Ex D&colon; Cornu Laudate	!	!
4d\	4ff#\	4ff#\	4d\	Lau-	4A\	Lau-	4ff#\	Lau-	4dd\	4ff#\	2.ryy	2.ryy
*	*Xtuplet	*Xtuplet	*	*	*	*	*	*	*	*	*	*
4d\	12ff#\L	12ff#\L	4d\	-da-	4A\	-da-	4ff#\	-da-	4dd\	4ff#\	.	.
.	12gg\	12gg\	.	.	.	.	.	.	.	.	.	.
.	12aa\J	12aa\J	.	.	.	.	.	.	.	.	.	.
4c#\	12cc#\L	12cc#\L	4c#\	-te	4A\	-te	4ff#\	-te	4a/	4ee\	.	.
.	12dd\	12dd\	.	.	.	.	.	.	.	.	.	.
.	12ee\J	12ee\J	.	.	.	.	.	.	.	.	.	.
=2	=2	=2	=2	=2	=2	=2	=2	=2	=2	=2	=2	=2
4B\	4dd\	4dd\	4.B\	do-	4.F#/	do-	4.dd\	Do-	4dd\	4dd\	2.ryy	2.ryy
!	!LO:TUP:a:problem:klamra łukowa:global	!	!	!	!	!	!	!	!LO:SIC:s=:v:problem:pauzy ćwierćnutowe między 1-2 polem&colon;global	!LO:SIC:s=:v:problem:pauzy ćwierćnutowe między 1-2 polem&colon;global	!	!
4B\	12dd\L	12dd\L	.	.	.	.	.	.	4r	4r	.	.
.	12ee\	12ee\	.	.	.	.	.	.	.	.	.	.
.	.	.	8B\	-mi-	8F#/	-mi-	8dd\	-mi-	.	.	.	.
.	12ff#\J	12ff#\J	.	.	.	.	.	.	.	.	.	.
!	!LO:TUP:a:problem:klamra łukowa	!	!	!	!	!	!	!	!	!	!	!
4F#\	12a\L	12a\L	4F#\	-num	4A/	-num	4dd\	-num	4r	4r	.	.
.	12b\	12b\	.	.	.	.	.	.	.	.	.	.
.	12ccn\J	12ccn\J	.	.	.	.	.	.	.	.	.	.
=3	=3	=3	=3	=3	=3	=3	=3	=3	=3	=3	=3	=3
4G\	8b\L	8b\L	8G\	om-	8B\	om-	8b\	om-	4ee\	4gg\	2.ryy	2.ryy
.	16gg\L	16gg\L	8G\	-nes	8G/	-nes	8ee\	-nes	.	.	.	.
.	16ee\JJ	16ee\JJ	.	.	.	.	.	.	.	.	.	.
!	!	!LO:SIC:s=:v:8qdd	!	!	!	!	!	!	!	!	!	!
.	8qqdd/	8qqee/	.	.	8qqF#/	.	.	.	.	.	.	.
*	*2\right	*2\right	*	*	*	*	*	*	*	*	*	*
4A\	2cc#X\	2cc#\	4A\	gen-	2E/	gen-	2cc#\	gen-	4a/	4ee\	.	.
4AA/	.	.	4AA/	.	.	.	.	.	8a/L	8ee\L	.	.
.	.	.	.	.	.	.	.	.	8a/J	8ee\J	.	.
=4	=4	=4	=4	=4	=4	=4	=4	=4	=4	=4	=4	=4
4D\	4dd\	4dd\	4D\	-tes	4F#/	-tes	4dd\	-tes	4dd\	4ff#\	2.ryy	2.ryy
*	*	*	*	*	*2\right	*	*2\right	*	*	*	*	*
!	!	!	!LO:SIC:s=:v:problem:2\right&colon;global	!	!LO:SIC:s=:v:problem:2\right&colon;global	!	!	!	!	!	!	!
4D\	12ff#\L	12ff#\L	2D\	lau-	2A\	lau-	2ff#\	lau-	4r	4r	.	.
.	12ee\	12ee\	.	.	.	.	.	.	.	.	.	.
.	12dd\J	12dd\J	.	.	.	.	.	.	.	.	.	.
4D\	12ff#\L	12ff#\L	.	.	.	.	.	.	4dd\	4ff#\	.	.
.	12gg#X\	12gg#X\	.	.	.	.	.	.	.	.	.	.
!	!LO:TX:a:t=vi-	!	!	!	!	!	!	!	!	!	!	!
.	12aa\J	12aa\J	.	.	.	.	.	.	.	.	.	.
=5	=5	=5	=5	=5	=5	=5	=5	=5	=5	=5	=5	=5
!	!LO:TX:a:t=-de	!	!	!	!	!	!	!	!	!	!	!
!	!LO:SIC:s=:v:problem:takt dopisany nad pięciolinią	!LO:SIC:s=:v:problem:takt dopisany nad pięciolinią	!	!	!	!	!	!	!	!	!	!
4A\	4dd\	4ee\	4A\	-da-	4c#\	-da-	4ee\	-da-	4a/	4ee\	2.ryy	2.ryy
!	!LO:SIC:s=:v:problem:triole bez numeru i łuku w t. 5	!	!	!	!	!	!	!	!	!	!	!
4A\	12ee\L	12ee\L	4A\	-te	4c#\	-te	4ee\	-te	4r	4r	.	.
.	12dd\	12dd\	.	.	.	.	.	.	.	.	.	.
.	12cc#\J	12cc#\J	.	.	.	.	.	.	.	.	.	.
4A\	12ee\L	12ee\L	8A\	e-	8c#\	e-	8ee\	e-	4a/	4ee\	.	.
.	12gg#X\	12gg#X\	.	.	.	.	.	.	.	.	.	.
.	.	.	8A\	-um	8c#\	-um	8ee\	-um	.	.	.	.
.	12aa\J	12aa\J	.	.	.	.	.	.	.	.	.	.
=6	=6	=6	=6	=6	=6	=6	=6	=6	=6	=6	=6	=6
4E\	4dd\	4dd\	8E\	om-	8B\	om-	8dd\	om-	4ee\	4ee\	2.ryy	2.ryy
.	.	.	8E\	-nes	8B\	-nes	8dd\	-nes	.	.	.	.
!	!	!	!	!	!	!	!LO:N:vis=8.	!	!	!	!	!
4E\	12dd\L	12dd\L	4.E\	po-	4.B\	po-	4.dd\	po-	4r	4r	.	.
.	12cc#\	12cc#\	.	.	.	.	.	.	.	.	.	.
.	12b\J	12b\J	.	.	.	.	.	.	.	.	.	.
!	!LO:SIC:s=:v:problem:triola bez numeru i łuku	!	!	!	!	!	!	!	!	!	!	!
4E\	12dd\L	12dd\L	.	.	.	.	.	.	4ee\	4ee\	.	.
.	12gg#X\	12gg#X\	.	.	.	.	.	.	.	.	.	.
.	.	.	8E\	-pu-	8B\	-pu-	8dd\	-pu-	.	.	.	.
.	12aa\J	12aa\J	.	.	.	.	.	.	.	.	.	.
=7	=7	=7	=7	=7	=7	=7	=7	=7	=7	=7	=7	=7
!	!	!	!LO:SIC:s=:v:-li	!	!	!	!	!	!	!	!	!
.	.	.	.	.	8qqB/	.	8qqdd/	.	.	.	.	.
4AA/	8cc#\L	8cc#\L	2AA/	-lo	2A\	-li	2cc#\	-li	4a/	4ee\	2.ryy	2.ryy
.	8a\	8a\	.	.	.	.	.	.	.	.	.	.
4AA/	8cc#\	8cc#\	.	.	.	.	.	.	8a/L	8ee\L	.	.
.	8ee\J	8ee\J	.	.	.	.	.	.	8a/J	8ee\J	.	.
4AA/	4aa\	4aa\	4r	.	4r	.	4r	.	4a/	4ee\	.	.
!	!	!	!	!	!	!	!LO:LB:g=original	!	!	!LO:LB:g=original	!	!
=8	=8	=8	=8	=8	=8	=8	=8	=8	=8	=8	=8	=8
4D\	4a/	4ff#\	4D\	quo-	4A\	quo-	4ff#\	Quo-	4dd\	4ff#\	2.ryy	2.ryy
4d\	4a/	4.ff#\	8d\	-ni-	8A\	-ni-	8ff#\	-ni-	8dd\L	8ff#\L	.	.
!	!	!	!	!	!LO:LB:g=original	!	!	!	!	!	!	!
.	.	.	8d\	-am	8A\	-am	8ff#\	-am	8dd\	8ff#\	.	.
!	!	!	!LO:LB:g=original	!	!	!	!	!	!	!	!	!
4c#\	4a/	.	8c#\	Con-	8A\	con-	8ff#\	Con-	8dd\	8ff#\	.	.
.	.	16dd\LL	8c#\	-fir-	8A\	-fir-	8ff#\	-fir-	8dd\J	8ff#\J	.	.
.	.	16ee\JJ	.	.	.	.	.	.	.	.	.	.
=9	=9	=9	=9	=9	=9	=9	=9	=9	=9	=9	=9	=9
4B\	4a/	4ff#\	4B\	-ma-	4d\	-ma-	4ff#\	-ma-	4dd\	4ff#\	2.ryy	2.ryy
4B\	4.ff#\	4.ddd\	4B\	-ta	4d\	-ta	4ff#\	-ta	4r	4r	.	.
4B\	.	.	4B\	est	4d\	eſt	4ff#\	est	4r	4r	.	.
.	8dd\	8ff#\	.	.	.	.	.	.	.	.	.	.
=10	=10	=10	=10	=10	=10	=10	=10	=10	=10	=10	=10	=10
4c#\	4a/	4ee\	8c#\	ſu-	8A\	ſu-	8ee\	ſu-	4a/	4ee\	2.ryy	2.ryy
.	.	.	8c#\	-per	8A\	-per	8ee\	-per	.	.	.	.
4c#\	4a/	4.ee\	4c#\	nos	4A\	nos	4ee\	nos	8a/L	8ee\L	.	.
.	.	.	.	.	.	.	.	.	8a/	8ee\	.	.
4B\	4a/	.	4B\	mi-	4A\	mi-	4ee\	mi-	8a/	8ee\	.	.
.	.	16cc#\LL	.	.	.	.	.	.	8a/J	8ee\J	.	.
.	.	16dd\JJ	.	.	.	.	.	.	.	.	.	.
=11	=11	=11	=11	=11	=11	=11	=11	=11	=11	=11	=11	=11
4A\	4cc#\	4ee\	8A\	-ſe-	8c#\	-ſe-	8ee\	-ſe-	4a/	4ee\	2.ryy	2.ryy
.	.	.	8A\	-ri-	8c#\	-ri-	8ee\	-ri-	.	.	.	.
4A\	4.ee\	4.ccc#\	4A\	-cor-	4c#\	-cor-	4ee\	-cor-	4r	4r	.	.
4A\	.	.	8A\	-di-	8c#\	-di-	8ee\	-di-	4r	4r	.	.
!	!	!	!	!	!	!	!LO:SIC:s=:v:-a	!	!	!	!	!
.	8cc#\	8ee\	8A\	-a	8c#\	-a	8ee\	-e	.	.	.	.
=12	=12	=12	=12	=12	=12	=12	=12	=12	=12	=12	=12	=12
4B\	4g#X/	4dd\	4B\	e-	4G#X/	e-	4ee\	e-	4ee\	4ee\	2.ryy	2.ryy
4B\	4g#/	4.dd\	4B\	-jus	4G#/	-ius	4dd\	-ius	8ee\L	8ee\L	.	.
.	.	.	.	.	.	.	.	.	8ee\	8ee\	.	.
!	!	!	!LO:SIC:s=:v:et	!	!	!	!	!	!	!	!	!
4A\	4g#/	.	4A\	e	4G#/	et	4dd\	et	8ee\	8ee\	.	.
.	.	16b\LL	.	.	.	.	.	.	8ee\J	8ee\J	.	.
.	.	16cc#\JJ	.	.	.	.	.	.	.	.	.	.
=13	=13	=13	=13	=13	=13	=13	=13	=13	=13	=13	=13	=13
4G#X\	4b\	4dd\	4.G#X\	ve-	4.B\	ve-	4.dd\	ve-	4ee\	4ee\	2.ryy	2.ryy
4E\	4.dd\	4.bb\	.	.	.	.	.	.	4r	4r	.	.
.	.	.	8G#\	-ri-	8B\	-ri-	8dd\	-ri-	.	.	.	.
4E\	.	.	4E\	-tas	4B\	-tas	4dd\	-tas	4r	4r	.	.
.	8b\	8dd\	.	.	.	.	.	.	.	.	.	.
!	!	!LO:LB:g=original	!	!	!	!	!	!	!	!	!	!
=14	=14	=14	=14	=14	=14	=14	=14	=14	=14	=14	=14	=14
*	*	*	*2\right	*	*	*	*	*	*	*	*	*
4A\	8a\	8cc#\	2A\	do-	8A\	do-	8cc#\	do-	4a/	4ee\	2.ryy	2.ryy
.	4cc#\	4ee\	.	.	4c#\	.	4ee\	.	.	.	.	.
4r	.	.	.	.	.	.	.	.	4r	4r	.	.
.	4dd\	4ff#\	.	.	4B\	.	4dd\	-mi-	.	.	.	.
4E\	.	.	4E\	-mi-	.	.	.	.	4r	4r	.	.
!	!	!LO:SIC:s=:v:problem:krzyżyk zamazany	!	!	!	!	!	!	!	!	!	!
.	8b\	8gg#X\	.	.	8G#X\	-mi-	8b\	-ni	.	.	.	.
!	!	!	!	!	!LO:LB:g=original	!	!LO:LB:g=original	!	!	!	!	!
=15	=15	=15	=15	=15	=15	=15	=15	=15	=15	=15	=15	=15
4AA/	8cc#\	8aa\	4A\	-ni	8A\	-ni	8cc#\	Ma-	4a/	4ee\	2.ryy	2.ryy
.	4cc#\	4ee\	.	.	4c#\	ma-	4ee\	.	.	.	.	.
4r	.	.	4A\	ma-	.	.	.	.	4r	4r	.	.
!	!	!	!	!	!LO:N:vis=8	!	!	!	!	!	!	!
.	4dd\	4ff#\	.	.	4B\	.	4dd\	.	.	.	.	.
4E\	.	.	4E\	.	.	.	.	.	4r	4r	.	.
.	8b\	8gg#X\	.	.	8G#X\	.	8b\	-net	.	.	.	.
!	!LO:LB:g=original	!	!	!	!	!	!	!	!	!	!	!
!	!	!	!	!	!	!	!	!	!LO:LB:g=original	!	!	!
=16	=16	=16	=16	=16	=16	=16	=16	=16	=16	=16	=16	=16
4AA/	8cc#\L	8aa\L	4A\	-net	4A\	-net	4cc#\	in	4ee\	4ee\	2.ryy	2.ryy
.	8b\J	8dd\J	.	.	.	.	.	.	.	.	.	.
!	!	!	!	!	!	!	!LO:SIC:s=:v:ae-	!	!	!	!	!
4G#X\	4.b\	4dd\	4G#X\	in	4.B\	in	4.dd\	e-	8ee\L	8ee\L	.	.
.	.	.	.	.	.	.	.	.	8ee\	8ee\	.	.
!	!	!LO:TX:a:t=c	!	!	!	!	!	!	!	!	!	!
4E\	.	8cc#\L	4E\	ae-	.	.	.	.	8ee\	8ee\	.	.
!	!	!LO:N:vis=16	!	!	!	!	!	!	!	!	!	!
!	!	!LO:N:vis=16	!	!	!	!	!	!	!	!	!	!
!	!	!LO:TX:a:t=h	!	!	!	!	!	!	!	!	!	!
.	16a/LL	8b\J	.	.	16A/LL	ae-	16b\LL	.	8ee\J	8ee\J	.	.
.	16g#X/JJ	.	.	.	16G#X/JJ	.	16a\JJ	.	.	.	.	.
!LO:LB:g=original	!	!	!LO:LB:g=original	!	!	!	!	!	!	!	!	!
=17	=17	=17	=17	=17	=17	=17	=17	=17	=17	=17	=17	=17
4A\	4a/	12cc#\L	4A\	-ter-	4A/	-ter-	4cc#\	-ter-	4a/	4ee\	2.ryy	2.ryy
.	.	12b\	.	.	.	.	.	.	.	.	.	.
.	.	12a\J	.	.	.	.	.	.	.	.	.	.
4E\	2g#X/	2b\	2E\	.	2G#X/	.	2b\	.	8ee\L	8ee\L	.	.
.	.	.	.	.	.	.	.	.	8ee\	8ee\	.	.
4EE/	.	.	.	.	.	.	.	.	8ee\	8ee\	.	.
.	.	.	.	.	.	.	.	.	8ee\J	8ee\J	.	.
=18	=18	=18	=18	=18	=18	=18	=18	=18	=18	=18	=18	=18
4AA/	8a\L	8a\L	4AA/	-num	4A\	-num.	4a\	-num	4a/	4ee\	2.ryy	2.ryy
.	8a\	8a\	.	.	.	.	.	.	.	.	.	.
4AA/	8cc#\	8cc#\	4r	.	4r	.	4r	.	4r	4r	.	.
.	8ee\	8ee\	.	.	.	.	.	.	.	.	.	.
4AA/	8aa\	8aa\	4r	.	4r	.	4r	.	4r	4r	.	.
.	8a\J	8cc#\J	.	.	.	.	.	.	.	.	.	.
=19	=19	=19	=19	=19	=19	=19	=19	=19	=19	=19	=19	=19
!	!	!	!	!	!	!	!	!	!	!LO:SIC:s=:v:problem:znak początku repetycji	!	!
!	!	!	!LO:N:vis=00	!	!LO:N:vis=00	!	!LO:N:vis=00	!	!	!	!	!
8E\L	8b\L	8dd\L	0.r	.	0.r	.	0.r	.	4r	4r	2.ryy	2.ryy
8e\J	16g#X\L	16b\L	.	.	.	.	.	.	.	.	.	.
.	16a\JJ	16cc#\JJ	.	.	.	.	.	.	.	.	.	.
.	8qqa/	8qqcc#/	.	.	.	.	.	.	.	.	.	.
16B\LL	2b\	2dd\	.	.	.	.	.	.	8ee\L	8ee\L	.	.
16A\	.	.	.	.	.	.	.	.	.	.	.	.
16G#X\	.	.	.	.	.	.	.	.	8ee\	8ee\	.	.
16F#\JJ	.	.	.	.	.	.	.	.	.	.	.	.
8E\L	.	.	.	.	.	.	.	.	8ee\	8ee\	.	.
8E\J	.	.	.	.	.	.	.	.	8ee\J	8ee\J	.	.
!	!	!	!	!	!	!	!	!	!	!LO:LB:g=original	!	!
=20	=20	=20	=20	=20	=20	=20	=20	=20	=20	=20	=20	=20
4AA/	8a\L	8cc#\L	.	.	.	.	.	.	4a/	4ee\	2.ryy	2.ryy
.	8a\	8a\	.	.	.	.	.	.	.	.	.	.
4AA/	8cc#\	8cc#\	.	.	.	.	.	.	4r	4r	.	.
.	8ee\	8ee\	.	.	.	.	.	.	.	.	.	.
!	!	!	!	!	!	!	!	!	!	!LO:SIC:s=:v:problem:znak końca repetycji	!	!
4AA/	8aa\	8aa\	.	.	.	.	.	.	4r	4r	.	.
.	8a\J	8cc#\J	.	.	.	.	.	.	.	.	.	.
=21	=21	=21	=21	=21	=21	=21	=21	=21	=21	=21	=21	=21
!	!	!	!	!	!	!	!	!	!	!LO:SIC:s=:v:problem:powtórzenie tt. 19-20 oznaczone znakami repetycji	!	!
8E\L	8b/L	8dd\L	.	.	.	.	.	.	4r	4ryy	2.ryy	2.ryy
8e\J	16g#X/L	16b\L	.	.	.	.	.	.	.	.	.	.
.	16a/JJ	16cc#\JJ	.	.	.	.	.	.	.	.	.	.
.	8qqa/	8qqcc#/	.	.	.	.	.	.	.	.	.	.
16B\LL	2b\	2dd\	.	.	.	.	.	.	8ee\L	8ee\Lyy	.	.
16A\	.	.	.	.	.	.	.	.	.	.	.	.
16G#X\	.	.	.	.	.	.	.	.	8ee\	8ee\yy	.	.
16F#\JJ	.	.	.	.	.	.	.	.	.	.	.	.
8E\L	.	.	.	.	.	.	.	.	8ee\	8ee\yy	.	.
8E\J	.	.	.	.	.	.	.	.	8ee\J	8ee\Jyy	.	.
=22	=22	=22	=22	=22	=22	=22	=22	=22	=22	=22	=22	=22
4AA/	16a\LL	16cc#\LL	.	.	.	.	.	.	4a/	4ee\yy	2.ryy	2.ryy
.	16a\	16a\	.	.	.	.	.	.	.	.	.	.
.	16b\	16b\	.	.	.	.	.	.	.	.	.	.
.	16cc#\JJ	16cc#\JJ	.	.	.	.	.	.	.	.	.	.
4BB/	16dd\LL	16dd\LL	.	.	.	.	.	.	4r	4ryy	.	.
.	16ee\	16ee\	.	.	.	.	.	.	.	.	.	.
.	16ff#\	16ff#\	.	.	.	.	.	.	.	.	.	.
.	16gg#X\JJ	16gg#X\JJ	.	.	.	.	.	.	.	.	.	.
!	!LO:TX:t=P:mixed beam:problem	!LO:TX:t=P:mixed beam:problem	!	!	!	!	!	!	!	!	!	!
4C#/	8.aa\L	8.aa\L	.	.	.	.	.	.	4r	4ryy	.	.
.	16a/Jk	16a/Jk	.	.	.	.	.	.	.	.	.	.
=23	=23	=23	=23	=23	=23	=23	=23	=23	=23	=23	=23	=23
4D\	8.f#/L	8.f#/L	2.r	.	2.r	.	2.r	.	4r	4r	2.ryy	2.ryy
.	16d/Jk	16b/Jk	.	.	.	.	.	.	.	.	.	.
.	8qqc#/	8qqa/	.	.	.	.	.	.	.	.	.	.
4E\	2B/	2g#X/	.	.	.	.	.	.	4ee\	4ee\	.	.
4EE/	.	.	.	.	.	.	.	.	8ee\L	8ee\L	.	.
.	.	.	.	.	.	.	.	.	8ee\J	8ee\J	.	.
=24	=24	=24	=24	=24	=24	=24	=24	=24	=24	=24	=24	=24
4AA/	4c#/	4a/	4A\	Glo-	4e\	Glo-	4cc#\	glo-	4a/	4ee\	2.ryy	2.ryy
!	!	!LO:SIC:s=:v:problem:klamra łukowa bez numeru	!	!	!	!	!	!	!	!	!	!
4A\	12cc#\L	12cc#\L	4A\	-ri-	4e\	-ri-	4cc#\	-ri-	4r	4r	.	.
.	12dd\	12dd\	.	.	.	.	.	.	.	.	.	.
.	12ee\J	12ee\J	.	.	.	.	.	.	.	.	.	.
4E\	12g#X/L	12g#X/L	4G#X\	-a	4e\	-a	4b\	-a	4r	4r	.	.
.	12a/	12a/	.	.	.	.	.	.	.	.	.	.
.	12b/J	12b/J	.	.	.	.	.	.	.	.	.	.
=25	=25	=25	=25	=25	=25	=25	=25	=25	=25	=25	=25	=25
4F#\	4a/	4a/	2F#\	pa-	2c#\	Pa-	2a\	Pa-	4a/	4ee\	2.ryy	2.ryy
!	!	!LO:SIC:s=:v:problem:klamra łukowa bez numeru	!	!	!	!	!	!	!	!	!	!
4F#\	12a/L	12a/L	.	.	.	.	.	.	4r	4r	.	.
.	12b/	12b/	.	.	.	.	.	.	.	.	.	.
.	12cc#/J	12cc#/J	.	.	.	.	.	.	.	.	.	.
4C#/	12e/L	12e/L	4C#/	-tri	4e\	-tri	4a\	-tri	4r	4r	.	.
.	12f#/	12f#/	.	.	.	.	.	.	.	.	.	.
.	12gn/J	12g/J	.	.	.	.	.	.	.	.	.	.
=26	=26	=26	=26	=26	=26	=26	=26	=26	=26	=26	=26	=26
!	!	!LO:TX:t=P:mixed beam:problem	!	!	!	!	!	!	!	!	!	!
4D\	8f#/L	8f#/L	4D\	et	4d\	et	8f#\L	et	4r	4r	2.ryy	2.ryy
.	8d/J	16dd\L	.	.	.	.	8b\J	.	.	.	.	.
.	.	16b\JJ	.	.	.	.	.	.	.	.	.	.
!	!	!LO:LB:g=original	!	!	!	!	!	!	!	!	!	!
.	8qqc#/	8qqa/	.	.	.	.	.	.	.	.	.	.
4E\	2B/	2g#X/	4E\	fi-	4.B\	fi-	4.g#X\	fi-	4ee\	4ee\	.	.
4EE/	.	.	4E\	-li-	.	.	.	.	8ee\L	8ee\L	.	.
!	!	!	!	!	!	!	!LO:N:vis=4	!	!	!	!	!
.	.	.	.	.	8B\	-li-	8g#\	-li-	8ee\J	8ee\J	.	.
=27	=27	=27	=27	=27	=27	=27	=27	=27	=27	=27	=27	=27
!	!LO:TX:t=P:mixed beam:problem	!	!	!	!	!	!	!	!	!	!	!
2AA/	8c#/L	8a\L	2AA/	-o	2.c#\	-o	2.a\	-o	4a/	4ee\	2.ryy	2.ryy
.	8a\	8a\	.	.	.	.	.	.	.	.	.	.
.	8cc#\	8cc#\	.	.	.	.	.	.	8a/L	8ee\L	.	.
.	8ee\J	8ee\J	.	.	.	.	.	.	8a/J	8ee\J	.	.
!	!LO:LB:g=original	!	!	!	!	!	!	!	!	!	!	!
4r	4aa\	4aa\	4r	.	.	.	.	.	4a/	4ee\	.	.
=28	=28	=28	=28	=28	=28	=28	=28	=28	=28	=28	=28	=28
4BB/	4dd\	4dd\	2B\	et	2F#/	et	2dd\	Et	4f#/	4f#/	2.ryy	2.ryy
4B\	12dd\L	12dd\L	.	.	.	.	.	.	4r	4r	.	.
.	12ee\	12ee\	.	.	.	.	.	.	.	.	.	.
.	12ff#\J	12ff#\J	.	.	.	.	.	.	.	.	.	.
!	!LO:SIC:s=:v:problem:♯ nad nutą	!	!	!	!	!	!	!	!	!	!	!
!	!LO:TX:a:t=a	!	!	!	!	!	!	!	!	!	!	!
!	!LO:SIC:s=:v:problem:triola bez numeru i łuku	!	!	!	!	!	!	!	!	!	!	!
4F#\	12a#X\L	12a#X\L	4A#X\	ſpi-	4f#\	ſpi-	4cc#\	ſpi-	4r	4r	.	.
!	!LO:TX:a:t=h	!	!	!	!	!	!	!	!	!	!	!
.	12b\	12b\	.	.	.	.	.	.	.	.	.	.
!	!LO:TX:a:t=c	!	!	!	!	!	!	!	!	!	!	!
.	12cc#\J	12cc#\J	.	.	.	.	.	.	.	.	.	.
!	!	!	!	!	!LO:LB:g=original	!	!	!	!	!	!	!
=29	=29	=29	=29	=29	=29	=29	=29	=29	=29	=29	=29	=29
4Gn\	4b\	4b\	4Gn\	-ri-	4.d\	-ri-	4.b\	-ri-	4f#/	4f#/	2.ryy	2.ryy
4G\	12b\L	12b\L	4G\	-tu-	.	.	.	.	4r	4r	.	.
.	12cc#\	12cc#\	.	.	.	.	.	.	.	.	.	.
.	.	.	.	.	8d\	-tu-	8b\	-tu-	.	.	.	.
.	12dd\J	12dd\J	.	.	.	.	.	.	.	.	.	.
4F#\	8f#/L	8f#/L	4F#\	-i	4d\	-i	4b\	-i	4r	4r	.	.
.	8b/J	8b/J	.	.	.	.	.	.	.	.	.	.
!LO:LB:g=original	!	!	!	!	!	!	!	!	!	!	!	!
=30	=30	=30	=30	=30	=30	=30	=30	=30	=30	=30	=30	=30
!	!	!LO:TX:t=P:mixed beam:problem	!	!	!	!	!LO:SIC:s=:v:problem:podział tekstu zgodnie z T B	!	!	!	!	!
4E\	8gn/L	8gn/L	4E\	ſan-	4e\	ſan-	8gn\L	ſan-	4r	4r	2.ryy	2.ryy
.	8e/J	16ee\L	.	.	.	.	8cc#\J	.	.	.	.	.
.	.	16cc#\JJ	.	.	.	.	.	.	.	.	.	.
!	!	!LO:SIC:s=:v:2a#	!	!	!	!	!	!	!	!	!	!
!	!	!LO:SIC:s=:v:problem:niejednoznaczny zapis przednutki	!	!	!	!	!	!	!	!	!	!
.	4qqd/	8qqg/	.	.	8qqd/	.	.	.	.	.	.	.
4F#\	2c#/	2a/	2F#\	.	2c#\	.	2a#X\	.	4f#/	4f#/	.	.
4FF#/	.	.	.	.	.	.	.	.	8f#/L	8f#/L	.	.
.	.	.	.	.	.	.	.	.	8f#/J	8f#/J	.	.
!	!	!	!	!	!	!	!LO:LB:g=original	!	!LO:LB:g=original	!	!	!
=31	=31	=31	=31	=31	=31	=31	=31	=31	=31	=31	=31	=31
!	!	!	!	!	!	!	!	!	!LO:TX:a:t=+	!	!	!
!	!LO:TX:t=P:mixed beam:problem	!	!LO:N:vis=2	!	!	!	!	!	!LO:SIC:s=:v:problem:niejednoznaczny zapis [przyjęto zgodnie z tr I]	!	!	!
2BB/	8d/L	8b\L	2.BB/	-cto	2.d\	-cto	2.b\	-cto	4f#/	4f#/	2.ryy	2.ryy
.	8b\	8b\	.	.	.	.	.	.	.	.	.	.
.	8dd\	8dd\	.	.	.	.	.	.	8f#/L	8f#/L	.	.
.	8ff#\J	8ff#\J	.	.	.	.	.	.	8f#/J	8f#/J	.	.
4r	4bb\	4bb\	.	.	.	.	.	.	4f#/	4f#/	.	.
=32	=32	=32	=32	=32	=32	=32	=32	=32	=32	=32	=32	=32
!	!	!	!	!	!	!	!	!	!LO:N:vis=00	!LO:N:vis=00	!	!
4BB/	8.dd#X\L	8.ff#\L	4BB/	ſi-	4d#X\	ſi-	4ff#\	ſi-	0.r	0.r	2.ryy	2.ryy
.	16b\Jk	16b\Jk	.	.	.	.	.	.	.	.	.	.
!	!	!LO:N:vis=4	!	!	!	!	!	!	!	!	!	!
4C#/	4.ff#\	4.aa\	4C#/	-cut	2d#\	-cut	2ff#\	-cut	.	.	.	.
4D#X/	.	.	4D#X/	.	.	.	.	.	.	.	.	.
.	(16ee\LL	16gg\LL	.	.	.	.	.	.	.	.	.	.
.	16dd#X\JJ)	16gg\JJ	.	.	.	.	.	.	.	.	.	.
=33	=33	=33	=33	=33	=33	=33	=33	=33	=33	=33	=33	=33
4E\	(8b\L	8gg\L	4E\	e-	8B\L	e-	8gg\L	e-	.	.	2.ryy	2.ryy
.	8a\	8ff#\	.	.	8A\J	.	8ff#\J	.	.	.	.	.
4F#\	8g\	8ee\	4F#\	-rat	8G/L	-rat	8ee\L	-rat	.	.	.	.
!	!	!LO:SIC:s=:v:problem:niejednoznaczny zapis [8ee / 8dd#]	!	!	!	!	!	!	!	!	!	!
.	8f#\J)	8dd#X\	.	.	8F#/J	.	8dd#X\J	.	.	.	.	.
!	!	!LO:SIC:s=:v:8ee	!	!	!	!	!	!	!	!	!	!
4G\	4g\	8cc#\	4G\	in	4G/	in	4ee\	in	.	.	.	.
!	!	!LO:SIC:s=:v:8ee	!	!	!	!	!	!	!	!	!	!
.	.	8cc#\J	.	.	.	.	.	.	.	.	.	.
=34	=34	=34	=34	=34	=34	=34	=34	=34	=34	=34	=34	=34
!	!	!	!	!	!	!	!LO:TX:a:t=+	!	!	!	!	!
!	!LO:TX:t=P:mixed beam:problem	!	!	!	!	!	!LO:N:vis=8	!	!	!	!	!
4A\	8e/L	8ccn/L	4A\	prin-	4A/	prin-	4ccn\L	prin-	.	.	2.ryy	2.ryy
.	(8ccn\	8a/	.	.	.	.	.	.	.	.	.	.
4B\	8b\	8gn/	4B\	-ci-	8G/L	-ci-	8b\	-ci-	.	.	.	.
.	8a\	8f#/	.	.	8F#/J	.	8a\J	.	.	.	.	.
4BB/	8g\	8e/	4BB/	-pi-	8E/L	-pi-	8g\L	-pi-	.	.	.	.
.	8f#\J)	8d#X/J	.	.	8D#X/J	.	8f#\J	.	.	.	.	.
=35	=35	=35	=35	=35	=35	=35	=35	=35	=35	=35	=35	=35
!	!LO:TX:t=P:mixed beam:problem	!LO:TX:t=P:mixed beam:problem	!	!	!	!	!	!	!	!	!	!
8E\L	8e/L	8e/L	4E\	-o	4E/	-o	4e/	-o	.	.	2.ryy	2.ryy
8e\J	8ee\J	8ee\J	.	.	.	.	.	.	.	.	.	.
16B\LL	16b/LL	16b/LL	4r	.	4r	.	4r	.	.	.	.	.
16A\	16a/	16a/	.	.	.	.	.	.	.	.	.	.
16G\	16g/	16g/	.	.	.	.	.	.	.	.	.	.
16F#\JJ	16f#/JJ	16f#/JJ	.	.	.	.	.	.	.	.	.	.
4E\	4e/	4e/	4r	.	4r	.	4r	.	.	.	.	.
!	!	!	!LO:LB:g=original	!	!	!	!	!	!	!	!	!
=36	=36	=36	=36	=36	=36	=36	=36	=36	=36	=36	=36	=36
4AA/	8.cc#\L	8.ee\L	4AA/	et	4c#\	et	4ee\	et	4a/	4ee\	2.ryy	2.ryy
.	16a\Jk	16a\Jk	.	.	.	.	.	.	.	.	.	.
4BB/	4.ee\	4.gg\	4BB/	nunc	4c#\	nunc	4ee\	nunc	4r	4r	.	.
4C#/	.	.	4C#/	.	4c#\	et	4ee\	et	4r	4r	.	.
.	(16dd\LL	16ff#\LL	.	.	.	.	.	.	.	.	.	.
.	16cc#\JJ)	16ee\JJ	.	.	.	.	.	.	.	.	.	.
=37	=37	=37	=37	=37	=37	=37	=37	=37	=37	=37	=37	=37
!	!	!	!	!	!	!	!LO:SIC:s=:v:problem:skreślone słowo "et"	!	!	!	!	!
4Dn\	(8a/L	8ff#\L	4Dn\	et	8A/L	ſem-	8ff#\L	ſem-	4dd\	4ff#\	2.ryy	2.ryy
.	8g/	8ee\	.	.	8G/	.	8ee\	.	.	.	.	.
4E\	8f#/	8dd\	4E\	ſem-	8F#/	.	8dd\	.	4r	4r	.	.
!	!LO:SIC:s=:v:8e	!	!	!	!	!	!	!	!	!	!	!
.	8f#/J)	8cc#X\	.	.	8E/J	.	8cc#\J	.	.	.	.	.
4F#\	4f#/	8dd\	4F#\	-per	4F#/	.	4dd\	.	4r	4r	.	.
.	.	8a\J	.	.	.	.	.	.	.	.	.	.
!	!	!	!	!	!LO:LB:g=original	!	!	!	!	!	!	!
=38	=38	=38	=38	=38	=38	=38	=38	=38	=38	=38	=38	=38
!	!	!	!	!	!	!	!LO:TX:a:t=+	!	!	!	!	!
!	!	!	!	!	!	!	!LO:N:vis=8	!	!	!	!	!
4G\	8d/L	8b/L	4G\	prin-	4G/	.	4b\L	.	4r	4r	2.ryy	2.ryy
.	(8b/	8g/	.	.	.	.	.	.	.	.	.	.
4A\	8a/	8f#/	4A\	-ci-	8F#/L	.	8a\	.	4a/	4ee\	.	.
.	8g/	8e/	.	.	8E/	.	8g\	.	.	.	.	.
4AA/	8f#/	8d/	4AA/	-pi-	8Dn/	.	8f#\	.	8a/L	8ee\L	.	.
.	8e/J)	8c#/J	.	.	8C#/J	.	8e\J	.	8a/J	8ee\J	.	.
!	!LO:LB:g=original	!	!	!	!	!	!	!	!	!LO:LB:g=original	!	!
=39	=39	=39	=39	=39	=39	=39	=39	=39	=39	=39	=39	=39
!	!LO:TX:t=P:mixed beam:problem	!LO:TX:t=P:mixed beam:problem	!	!	!	!	!	!	!	!	!	!
8D\L	8d/L	8d/L	2D\	-o	2D/	-per	2d/	-per	4dd\	4ff#\	2.ryy	2.ryy
8d\J	8dd\J	8dd\J	.	.	.	.	.	.	.	.	.	.
16A\LL	16a/LL	16a/LL	.	.	.	.	.	.	8dd\L	8ff#\L	.	.
16G\	16g/	16g/	.	.	.	.	.	.	.	.	.	.
16F#\	16f#/	16f#/	.	.	.	.	.	.	8dd\J	8ff#\J	.	.
16E\JJ	16e/JJ	16e/JJ	.	.	.	.	.	.	.	.	.	.
4D\	4d/	4d/	4r	.	4r	.	4r	.	4dd\	4ff#\	.	.
!	!	!LO:LB:g=original	!	!	!	!	!	!	!	!	!	!
=40	=40	=40	=40	=40	=40	=40	=40	=40	=40	=40	=40	=40
4D\	4ff#\	4ff#\	4d\	et	4A\	et	4ff#\	et	4dd\	4ff#\	2.ryy	2.ryy
4d\	12ff#\L	12ff#\L	4d\	in	2A\	in	4ff#\	in	4dd\	4ff#\	.	.
.	12gg\	12gg\	.	.	.	.	.	.	.	.	.	.
.	12aa\J	12aa\J	.	.	.	.	.	.	.	.	.	.
4c#\	12cc#\L	12cc#\L	4c#\	.	.	.	4ee\	.	4a/	4ee\	.	.
.	12dd\	12dd\	.	.	.	.	.	.	.	.	.	.
.	12ee\J	12ee\J	.	.	.	.	.	.	.	.	.	.
=41	=41	=41	=41	=41	=41	=41	=41	=41	=41	=41	=41	=41
!	!LO:TX:a:t=d	!	!	!	!	!	!LO:SIC:s=:v:sae-	!	!	!	!	!
4B\	4dd\	4dd\	4B\	ſe-	4F#/	ſae-	4dd\	ſe-	4dd\	4dd\	2.ryy	2.ryy
4B\	12dd\L	12dd\L	4B\	-cu-	4F#/	-cu-	4dd\	-cu-	4r	4r	.	.
.	12ee\	12ee\	.	.	.	.	.	.	.	.	.	.
.	12ff#\J	12ff#\J	.	.	.	.	.	.	.	.	.	.
4F#\	12a\L	12a\L	4F#\	-la	4A/	-la	4dd\	-la	4r	4r	.	.
.	12b\	12b\	.	.	.	.	.	.	.	.	.	.
.	12ccn\J	12ccn\J	.	.	.	.	.	.	.	.	.	.
!	!	!	!	!	!	!	!LO:LB:g=original	!	!	!	!	!
=42	=42	=42	=42	=42	=42	=42	=42	=42	=42	=42	=42	=42
4G\	8b/L	8b\L	8G\	ſe-	8B\	ſae-	8b\	ſe-	4ee\	4gg\	2.ryy	2.ryy
.	16b/L	16gg\L	8G\	-cu-	8G/	-cu-	8ee\	-cu-	.	.	.	.
.	16g/JJ	16ee\JJ	.	.	.	.	.	.	.	.	.	.
.	4qqf#/	8qqdd/	.	.	8qqF#/	.	8qqdd/	.	.	.	.	.
4A\	2e/	2cc#X\	4A\	-lo-	2E/	-lo-	2cc#\	-lo-	4a/	4ee\	.	.
4AA/	.	.	4AA/	.	.	.	.	.	8a/L	8ee\L	.	.
.	.	.	.	.	.	.	.	.	8a/J	8ee\J	.	.
!LO:LB:g=original	!	!	!	!	!	!	!	!	!	!	!	!
=43	=43	=43	=43	=43	=43	=43	=43	=43	=43	=43	=43	=43
4D\	4f#/	4dd\	4D\	-rum	4F#/	-rum	4dd\	-rum	4dd\	4ff#\	2.ryy	2.ryy
!	!	!	!LO:SIC:s=:v:problem:niejednoznaczny podział tekstu słownego w tt. 43-47	!	!	!	!	!	!	!	!	!
4F#\	4a/	12ccn\L	4F#\	a-	2A/	a-	2ccn\	a-	4dd\	4ff#\	.	.
.	.	12b\	.	.	.	.	.	.	.	.	.	.
.	.	12a\J	.	.	.	.	.	.	.	.	.	.
4D\	4f#/	12ff#\L	4D\	.	.	.	.	.	4dd\	4ff#\	.	.
.	.	12gg\	.	.	.	.	.	.	.	.	.	.
.	.	12aa\J	.	.	.	.	.	.	.	.	.	.
=44	=44	=44	=44	=44	=44	=44	=44	=44	=44	=44	=44	=44
!	!	!LO:SIC:s=:v:8qccn	!	!	!	!	!	!	!	!	!	!
.	.	8qqcc#/	.	.	.	.	.	.	.	.	.	.
4G\	4d/	4b\	4G\	-men	4D/	-men	4b\	-men	4dd\	4gg\	2.ryy	2.ryy
4G#X\	4b/	12dd\L	4G#X\	.	2B\	a-	2dd\	a-	4ee\	4gg#X\	.	.
.	.	12cc#X\	.	.	.	.	.	.	.	.	.	.
.	.	12b\J	.	.	.	.	.	.	.	.	.	.
4E\	4g#X/	12gg#X\L	4E\	a-	.	.	.	.	8ee\L	8gg#\L	.	.
.	.	12aa\	.	.	.	.	.	.	.	.	.	.
.	.	.	.	.	.	.	.	.	8ee\J	8gg#\J	.	.
.	.	12bb\J	.	.	.	.	.	.	.	.	.	.
=45	=45	=45	=45	=45	=45	=45	=45	=45	=45	=45	=45	=45
!	!	!LO:SIC:s=:v:8qdd	!	!	!	!	!	!	!	!LO:SIC:s:o=:v:dopiski innym tuszem	!	!
.	.	8qqcc#/	.	.	.	.	.	.	.	.	.	.
4A\	4e/	4cc#\	4A\	.	4E/	-men	4cc#X\	-men	4ee\	4aa\	2.ryy	2.ryy
!	!	!	!	!	!	!	!	!	!	!LO:TX:a:t=d	!	!
4AA/	12e/L	12gn/L	4A\	.	2e\	a-	2gg\	a-	4a/	4ee\	.	.
.	12d/	12f#/	.	.	.	.	.	.	.	.	.	.
.	12c#/J	12e/J	.	.	.	.	.	.	.	.	.	.
!	!LO:SIC:s=:v:problem:triola bez numeru i łuku	!	!	!	!	!	!	!	!	!	!	!
4AA/	12e/L	12cc#\L	4A\	.	.	.	.	.	8a/L	8ee\L	.	.
.	12f#/	12dd\	.	.	.	.	.	.	.	.	.	.
.	.	.	.	.	.	.	.	.	8a/J	8ee\J	.	.
.	12g/J	12ee\J	.	.	.	.	.	.	.	.	.	.
=46	=46	=46	=46	=46	=46	=46	=46	=46	=46	=46	=46	=46
!	!	!LO:TX:t=P:mixed beam:problem	!	!	!	!	!	!	!	!LO:SIC:s=:v:problem:znak początku repetycji	!	!
4D\	8d/L	8f#\L	4d\	.	4d\	-men	4ff#\	-men	4dd\	4ff#\	2.ryy	2.ryy
.	8f#/J	8dd/J	.	.	.	.	.	.	.	.	.	.
4A\	4c#/	4e/	4A\	.	2c#\	a-	2ee\	a-	4a/	4ee\	.	.
!	!LO:SIC:s=:v:4e	!	!	!	!	!	!	!	!	!LO:SIC:s=:v:problem:znak końca repetycji	!	!
4AA/	4f#/	4cc#\	4AA/	-men	.	.	.	.	4a/	4ee\	.	.
=47	=47	=47	=47	=47	=47	=47	=47	=47	=47	=47	=47	=47
!	!LO:TX:t=P:mixed beam:problem	!	!	!	!	!	!	!	!	!LO:SIC:s=:v:problem:powtórzenie t. 46 oznaczone znakami repetycji	!	!
4D\	8f#/L	8dd\L	4D\	.	4d\	-men	4ff#\	-men	4dd\	4ff#\yy	2.ryy	2.ryy
.	8ff#\J	8ddd\J	.	.	.	.	.	.	.	.	.	.
4A\	4cc#\	4ee\	4A\	a-	2c#\	a-	2ee\	a-	4a/	4ee\yy	.	.
!	!LO:SIC:s=:v:problem:[przyjęto tryl]	!	!	!	!	!	!	!	!	!	!	!
4AA/	4eeT\	4ccc#\	4AA/	.	.	.	.	.	4a/	4ee\yy	.	.
=48	=48	=48	=48	=48	=48	=48	=48	=48	=48	=48	=48	=48
4D\	4ff#\	4ddd\	4D\	-men	4d\	-men	4ff#\	-men	4dd\	4ff#\	2.ryy	2.ryy
4r	4r	4r	4r	.	4r	.	4r	.	4r	4r	.	.
!LO:SIC:s=:v:problem:łuk nad kreską taktową [przyjęto fermatę]	!LO:SIC:s=:v:problem:fermata z podwójna kropką nad i pod kreską taktową	!LO:TX:b:t=Vertat Magnificat	!	!	!LO:SIC:s=:v:problem:kreska taktowa podwójna	!	!	!	!LO:SIC:s=:v:problem:fermata nad i pod kreską taktową	!	!	!
!LO:SIC:s=:v:problem:kreska taktowa podwójna + szlaczek	!	!LO:SIC:s=:v:problem:kreska taktowa podwójna	!LO:SIC:s=:v:problem:kreska taktowa podwójna	!	!	!	!LO:SIC:s=:v:problem:kreska taktowa podwójna	!	!LO:SIC:s=:v:problem:kreska taktowa podwójna	!LO:SIC:s=:v:problem:kreska taktowa podwójna	!	!
4r	4r	4r	4r	.	4ryy	.	4r	.	4r	4r	.	.
==	==	==	==:||:;;	==	==	==	==	==	==;;	==	==	==
*-	*-	*-	*-	*-	*-	*-	*-	*-	*-	*-	*-	*-
!!!system-decoration: [(s1,s2)][(s3,s4)][(s5,s6,s7)][(s8,s9,s10)]
!!!RDF**kern: > = above
!!!RDF**kern: < = below
!!!EED: Leszek Kubiak
!!!EST: 2020-09-30
!!!ENC: Andrzej Kubiczek
!!!END: 2020-05-16
